X:201
T:B201-  How Unhappy a Lover Am I
Q:1/4=120
L:1/4
M:3/4
K:Dm
D/2E/2|F3/2G/2A|F3/2E/2F|(D3|D2)A/2B/2|\
c3/2B/2A|dde|(^c3|c2)d/2c/2|\
B3/2A/2G|c3/2B/2A|GAF|E3/2D/2C|\
FGA|BG3/2F/2|(F3|F2)":s:"d/2e/2|\
f3/2e/2d|efd|(^c3|c2)A/2B/2|
c3/2B/2A|^F3/2G/2A|(B3|B2)A/2G/2|\
F3/2E/2F|GAB|ABc|=B2e/2f/2|\
^c3/2d/2e|f3/2e/2^c|(d3|d2)|]

